X:1
T:Willie Drowned in Ero
M:6/4
L:1/4
K:E
 z4 z B,| E F G F- E C| C/2 E3/2 E B,2 G| A/2 B3/2 c B G E| F E2 z2 B,|\
 E- F G F- E E| C- E E B,2 G| B/2 B3/2 c B- G G| F/2 E3/2 z z2 E| F/2 F3/2 F F2 E|\
 G/2 B3/2 z z2 B,| E- F G F- E E| C- E E B,2G/2-A/2| A/2 B3/2 c B- G F|\
 F/2 E3/2 z z2 z|

